src/gui/emoticons/silly.svg

<svg xmlns="http://www.w3.org/2000/svg" xmlns:xlink="http://www.w3.org/1999/xlink" width="16pt" height="16pt" version="1.1" viewBox="0 0 16 16"><defs><linearGradient id="linear0" x1="64" x2="64" y1="19.717" y2="107.7" gradientTransform="matrix(0.125,0,0,0.125,0,0)" gradientUnits="userSpaceOnUse"><stop offset=".5" style="stop-color:#fee133;stop-opacity:1"/><stop offset=".612" style="stop-color:#fede32;stop-opacity:1"/><stop offset=".708" style="stop-color:#fcd32f;stop-opacity:1"/><stop offset=".797" style="stop-color:#fac12b;stop-opacity:1"/><stop offset=".883" style="stop-color:#f7a924;stop-opacity:1"/><stop offset=".9" style="stop-color:#f6a323;stop-opacity:1"/></linearGradient><clipPath id="clip1"><path d="M 3 7 L 13 7 L 13 14 L 3 14 Z M 3 7"/></clipPath><clipPath id="clip2"><path d="M 8.347656 9.558594 C 6.839844 10.066406 5.398438 10.414062 4.15625 10.589844 C 3.851562 10.632812 3.679688 10.976562 3.835938 11.242188 C 4.863281 13.011719 7.261719 13.941406 9.5625 13.167969 C 12.078125 12.316406 13.234375 10.136719 12.960938 8.160156 C 12.917969 7.855469 12.578125 7.691406 12.308594 7.839844 C 11.214844 8.453125 9.855469 9.050781 8.347656 9.558594 Z M 8.347656 9.558594"/></clipPath><filter id="alpha" width="100%" height="100%" x="0%" y="0%" filterUnits="objectBoundingBox"><feColorMatrix in="SourceGraphic" type="matrix" values="0 0 0 0 1 0 0 0 0 1 0 0 0 0 1 0 0 0 1 0"/></filter><mask id="mask0"><g filter="url(#alpha)"><rect width="16" height="16" x="0" y="0" style="fill:#000;fill-opacity:.6;stroke:none"/></g></mask><clipPath id="clip3"><rect width="16" height="16"/></clipPath><g id="surface6" clip-path="url(#clip3)"><path style="stroke:none;fill-rule:nonzero;fill:#000;fill-opacity:1" d="M 12.476562 8.320312 C 12.574219 9.175781 12.363281 10.0625 11.886719 10.816406 C 11.339844 11.679688 10.480469 12.328125 9.402344 12.691406 C 8.910156 12.859375 8.402344 12.941406 7.890625 12.941406 C 6.414062 12.941406 5.019531 12.210938 4.316406 11.074219 C 5.609375 10.882812 7.054688 10.523438 8.507812 10.035156 C 9.960938 9.542969 11.328125 8.953125 12.476562 8.320312 M 12.523438 7.785156 C 12.453125 7.785156 12.378906 7.800781 12.308594 7.839844 C 11.214844 8.453125 9.855469 9.050781 8.347656 9.558594 C 6.839844 10.066406 5.398438 10.414062 4.15625 10.589844 C 3.851562 10.632812 3.679688 10.976562 3.835938 11.242188 C 4.613281 12.582031 6.179688 13.441406 7.890625 13.441406 C 8.441406 13.441406 9.003906 13.355469 9.5625 13.167969 C 12.082031 12.316406 13.234375 10.136719 12.960938 8.160156 C 12.929688 7.933594 12.734375 7.785156 12.523438 7.785156 Z M 12.523438 7.785156"/></g><clipPath id="clip4"><path d="M 5 9 L 11 9 L 11 16 L 5 16 Z M 5 9"/></clipPath><clipPath id="clip5"><path d="M 4.347656 11.160156 L 6.113281 16.390625 L 14.171875 13.671875 L 12.410156 8.441406 C 11.28125 9.054688 9.945312 9.628906 8.53125 10.105469 C 7.117188 10.578125 5.707031 10.933594 4.441406 11.128906"/></clipPath><clipPath id="clip6"><path d="M 4 8 L 15 8 L 15 16 L 4 16 Z M 4 8"/></clipPath><clipPath id="clip7"><path d="M 4.347656 11.160156 L 6.113281 16.390625 L 14.171875 13.671875 L 12.410156 8.441406 C 11.28125 9.054688 9.945312 9.628906 8.53125 10.105469 C 7.117188 10.578125 5.707031 10.933594 4.441406 11.128906"/></clipPath><mask id="mask1"><g filter="url(#alpha)"><rect width="16" height="16" x="0" y="0" style="fill:#000;fill-opacity:.301961;stroke:none"/></g></mask><clipPath id="clip8"><rect width="16" height="16"/></clipPath><g id="surface9" clip-path="url(#clip8)"><path style="stroke:none;fill-rule:nonzero;fill:#ab3f2e;fill-opacity:1" d="M 9.730469 9.683594 L 9.933594 13.386719 C 9.980469 14.296875 9.273438 15.074219 8.363281 15.113281 L 7.953125 15.136719 C 7.925781 15.136719 7.898438 15.136719 7.875 15.136719 C 6.992188 15.136719 6.265625 14.445312 6.226562 13.5625 L 6.019531 10.8125 Z M 10.203125 9.511719 L 5.496094 10.921875 L 5.726562 13.585938 C 5.78125 14.738281 6.734375 15.636719 7.875 15.636719 C 7.910156 15.636719 7.945312 15.636719 7.980469 15.636719 L 8.390625 15.613281 C 9.578125 15.558594 10.492188 14.550781 10.4375 13.363281 Z M 10.203125 9.511719"/></g><mask id="mask2"><g filter="url(#alpha)"><rect width="16" height="16" x="0" y="0" style="fill:#000;fill-opacity:.301961;stroke:none"/></g></mask><clipPath id="clip9"><rect width="16" height="16"/></clipPath><g id="surface12" clip-path="url(#clip9)"><path style="fill:none;stroke-width:4;stroke-linecap:round;stroke-linejoin:miter;stroke:#ab3f2e;stroke-opacity:1;stroke-miterlimit:10" d="M 62.8125 82.09375 L 64.40625 103.1875" transform="matrix(0.125,0,0,0.125,0,0)"/></g></defs><g id="surface1"><path style="stroke:none;fill-rule:nonzero;fill:url(#linear0)" d="M 8 14.984375 C 4.507812 14.984375 0.75 12.800781 0.75 8 C 0.75 3.199219 4.507812 1.015625 8 1.015625 C 9.933594 1.015625 11.726562 1.652344 13.046875 2.816406 C 14.488281 4.089844 15.25 5.882812 15.25 8 C 15.25 10.109375 14.488281 11.894531 13.046875 13.171875 C 11.722656 14.34375 9.929688 14.984375 8 14.984375 Z M 8 14.984375"/><path style="stroke:none;fill-rule:nonzero;fill:#eb8f00;fill-opacity:1" d="M 8 1.265625 C 9.875 1.265625 11.609375 1.882812 12.878906 3.003906 C 14.265625 4.230469 15 5.957031 15 8 C 15 10.035156 14.265625 11.757812 12.878906 12.984375 C 11.601562 14.113281 9.871094 14.734375 8 14.734375 C 6.121094 14.734375 4.386719 14.121094 3.121094 13.007812 C 1.734375 11.789062 1 10.058594 1 8 C 1 5.933594 1.734375 4.199219 3.121094 2.980469 C 4.382812 1.875 6.117188 1.265625 8 1.265625 M 8 0.765625 C 4.105469 0.765625 0.5 3.265625 0.5 8 C 0.5 12.710938 4.105469 15.234375 8 15.234375 C 11.894531 15.234375 15.5 12.644531 15.5 8 C 15.5 3.328125 11.894531 0.765625 8 0.765625 Z M 8 0.765625"/><path style="stroke:none;fill-rule:nonzero;fill:#fff;fill-opacity:1" d="M 12.804688 5.109375 C 12.804688 6.625 11.574219 7.855469 10.054688 7.855469 C 8.535156 7.855469 7.304688 6.625 7.304688 5.109375 C 7.304688 3.589844 8.535156 2.359375 10.054688 2.359375 C 11.574219 2.359375 12.804688 3.589844 12.804688 5.109375 Z M 12.804688 5.109375"/><path style="stroke:none;fill-rule:nonzero;fill:#eb8f00;fill-opacity:1" d="M 10.054688 2.859375 C 10.976562 2.859375 11.796875 3.410156 12.140625 4.261719 C 12.605469 5.414062 12.050781 6.726562 10.898438 7.191406 C 10.628906 7.300781 10.34375 7.359375 10.054688 7.359375 C 9.136719 7.359375 8.316406 6.804688 7.972656 5.953125 C 7.503906 4.800781 8.0625 3.488281 9.210938 3.023438 C 9.480469 2.914062 9.765625 2.859375 10.054688 2.859375 M 10.054688 2.359375 C 9.710938 2.359375 9.359375 2.421875 9.023438 2.558594 C 7.613281 3.128906 6.9375 4.734375 7.507812 6.140625 C 7.941406 7.207031 8.96875 7.859375 10.054688 7.859375 C 10.398438 7.859375 10.75 7.792969 11.085938 7.65625 C 12.496094 7.085938 13.171875 5.480469 12.601562 4.074219 C 12.171875 3.007812 11.140625 2.359375 10.054688 2.359375 Z M 10.054688 2.359375"/><path style="stroke:none;fill-rule:nonzero;fill:#242424;fill-opacity:1" d="M 10.929688 5.125 C 10.929688 5.609375 10.539062 6 10.054688 6 C 9.570312 6 9.179688 5.609375 9.179688 5.125 C 9.179688 4.640625 9.570312 4.25 10.054688 4.25 C 10.539062 4.25 10.929688 4.640625 10.929688 5.125 Z M 10.929688 5.125"/><path style="stroke:none;fill-rule:nonzero;fill:#fff;fill-opacity:1" d="M 6.484375 7.113281 C 6.484375 8.21875 5.589844 9.113281 4.484375 9.113281 C 3.382812 9.113281 2.484375 8.21875 2.484375 7.113281 C 2.484375 6.007812 3.382812 5.113281 4.484375 5.113281 C 5.589844 5.113281 6.484375 6.007812 6.484375 7.113281 Z M 6.484375 7.113281"/><path style="stroke:none;fill-rule:nonzero;fill:#eb8f00;fill-opacity:1" d="M 4.492188 5.613281 C 5.105469 5.613281 5.652344 5.980469 5.882812 6.550781 C 6.03125 6.921875 6.03125 7.328125 5.875 7.699219 C 5.71875 8.066406 5.425781 8.351562 5.054688 8.503906 C 4.875 8.578125 4.6875 8.613281 4.492188 8.613281 C 3.878906 8.613281 3.332031 8.246094 3.105469 7.675781 C 2.792969 6.910156 3.164062 6.035156 3.929688 5.722656 C 4.109375 5.652344 4.300781 5.613281 4.492188 5.613281 M 4.492188 5.113281 C 4.242188 5.113281 3.988281 5.160156 3.742188 5.261719 C 2.71875 5.675781 2.226562 6.84375 2.640625 7.863281 C 2.953125 8.640625 3.703125 9.113281 4.492188 9.113281 C 4.742188 9.113281 5 9.066406 5.242188 8.964844 C 6.265625 8.550781 6.761719 7.386719 6.347656 6.363281 C 6.03125 5.585938 5.28125 5.113281 4.492188 5.113281 Z M 4.492188 5.113281"/><path style="stroke:none;fill-rule:nonzero;fill:#242424;fill-opacity:1" d="M 5.367188 7.125 C 5.367188 7.609375 4.976562 8 4.492188 8 C 4.011719 8 3.617188 7.609375 3.617188 7.125 C 3.617188 6.640625 4.011719 6.25 4.492188 6.25 C 4.976562 6.25 5.367188 6.640625 5.367188 7.125 Z M 5.367188 7.125"/><g clip-path="url(#clip1)" clip-rule="nonzero"><g clip-path="url(#clip2)" clip-rule="nonzero"><path style="stroke:none;fill-rule:nonzero;fill:#242424;fill-opacity:1" d="M 8.347656 9.558594 C 6.839844 10.066406 5.398438 10.414062 4.15625 10.589844 C 3.851562 10.632812 3.679688 10.976562 3.835938 11.242188 C 4.863281 13.011719 7.261719 13.941406 9.5625 13.167969 C 12.078125 12.316406 13.234375 10.136719 12.960938 8.160156 C 12.917969 7.855469 12.578125 7.691406 12.308594 7.839844 C 11.214844 8.453125 9.855469 9.050781 8.347656 9.558594 Z M 8.347656 9.558594"/><use mask="url(#mask0)" xlink:href="#surface6"/></g></g><g clip-path="url(#clip4)" clip-rule="nonzero"><g clip-path="url(#clip5)" clip-rule="nonzero"><path style="stroke:none;fill-rule:nonzero;fill:#e04c74;fill-opacity:1" d="M 8.386719 15.613281 L 7.976562 15.636719 C 6.789062 15.691406 5.78125 14.773438 5.726562 13.585938 L 5.496094 10.871094 L 10.203125 9.511719 L 10.433594 13.363281 C 10.488281 14.550781 9.574219 15.558594 8.386719 15.613281 Z M 8.386719 15.613281"/></g></g><g clip-path="url(#clip6)" clip-rule="nonzero"><g clip-path="url(#clip7)" clip-rule="nonzero"><use mask="url(#mask1)" xlink:href="#surface9"/><use mask="url(#mask2)" xlink:href="#surface12"/></g></g></g></svg>

<svg xmlns="http://www.w3.org/2000/svg" xmlns:xlink="http://www.w3.org/1999/xlink" width="16pt" height="16pt" viewBox="0 0 16 16"><defs><clipPath id="f"><path d="M3 7h10v7H3Zm0 0"/></clipPath><clipPath id="g"><path d="M8.348 9.559c-1.508.507-2.95.855-4.192 1.03a.44.44 0 0 0-.32.653c1.027 1.77 3.426 2.7 5.727 1.926 2.515-.852 3.671-3.031 3.398-5.008a.443.443 0 0 0-.652-.32c-1.094.613-2.454 1.21-3.961 1.719m0 0"/></clipPath><clipPath id="b"><path d="M0 0h16v16H0z"/></clipPath><clipPath id="j"><path d="M5 9h6v7H5Zm0 0"/></clipPath><clipPath id="k"><path d="m4.348 11.16 1.765 5.23 8.059-2.718-1.762-5.23c-1.129.613-2.465 1.187-3.879 1.663-1.414.473-2.824.829-4.09 1.024"/></clipPath><clipPath id="l"><path d="M4 8h11v8H4Zm0 0"/></clipPath><clipPath id="m"><path d="m4.348 11.16 1.765 5.23 8.059-2.718-1.762-5.23c-1.129.613-2.465 1.187-3.879 1.663-1.414.473-2.824.829-4.09 1.024"/></clipPath><clipPath id="c"><path d="M0 0h16v16H0z"/></clipPath><clipPath id="d"><path d="M0 0h16v16H0z"/></clipPath><mask id="h"><g filter="url(#a)"><path d="M0 0h16v16H0z" style="fill:#000;fill-opacity:.6;stroke:none"/></g></mask><mask id="n"><g filter="url(#a)"><path d="M0 0h16v16H0z" style="fill:#000;fill-opacity:.301961;stroke:none"/></g></mask><mask id="p"><g filter="url(#a)"><path d="M0 0h16v16H0z" style="fill:#000;fill-opacity:.301961;stroke:none"/></g></mask><g id="i" clip-path="url(#b)"><path d="M12.477 8.32a3.88 3.88 0 0 1-.59 2.496c-.547.864-1.407 1.512-2.485 1.875-.492.168-1 .25-1.511.25-1.477 0-2.871-.73-3.575-1.867 1.293-.191 2.739-.55 4.192-1.039 1.453-.492 2.82-1.082 3.969-1.715m.046-.535a.44.44 0 0 0-.214.055c-1.094.613-2.454 1.21-3.961 1.719-1.508.507-2.95.855-4.192 1.03a.44.44 0 0 0-.32.653c.777 1.34 2.344 2.2 4.055 2.2.55 0 1.113-.087 1.672-.274 2.519-.852 3.671-3.031 3.398-5.008a.44.44 0 0 0-.438-.375m0 0" style="stroke:none;fill-rule:nonzero;fill:#000;fill-opacity:1"/></g><g id="o" clip-path="url(#c)"><path d="m9.73 9.684.204 3.703c.046.91-.66 1.687-1.57 1.726l-.41.024h-.079c-.883 0-1.61-.692-1.648-1.575l-.207-2.75Zm.473-.172-4.707 1.41.23 2.664a2.154 2.154 0 0 0 2.149 2.05h.105l.41-.023a2.15 2.15 0 0 0 2.047-2.25Zm0 0" style="stroke:none;fill-rule:nonzero;fill:#ab3f2e;fill-opacity:1"/></g><g id="q" clip-path="url(#d)"><path d="m62.813 82.094 1.593 21.094" style="fill:none;stroke-width:4;stroke-linecap:round;stroke-linejoin:miter;stroke:#ab3f2e;stroke-opacity:1;stroke-miterlimit:10" transform="scale(.125)"/></g><linearGradient id="e" x1="64" x2="64" y1="19.717" y2="107.7" gradientTransform="scale(.125)" gradientUnits="userSpaceOnUse"><stop offset=".5" style="stop-color:#fee133;stop-opacity:1"/><stop offset=".612" style="stop-color:#fede32;stop-opacity:1"/><stop offset=".708" style="stop-color:#fcd32f;stop-opacity:1"/><stop offset=".797" style="stop-color:#fac12b;stop-opacity:1"/><stop offset=".883" style="stop-color:#f7a924;stop-opacity:1"/><stop offset=".9" style="stop-color:#f6a323;stop-opacity:1"/></linearGradient><filter id="a" width="100%" height="100%" x="0%" y="0%" filterUnits="objectBoundingBox"><feColorMatrix in="SourceGraphic" values="0 0 0 0 1 0 0 0 0 1 0 0 0 0 1 0 0 0 1 0"/></filter></defs><path d="M8 14.984C4.508 14.984.75 12.801.75 8 .75 3.2 4.508 1.016 8 1.016c1.934 0 3.727.636 5.047 1.8C14.488 4.09 15.25 5.883 15.25 8c0 2.11-.762 3.895-2.203 5.172C11.723 14.344 9.93 14.984 8 14.984m0 0" style="stroke:none;fill-rule:nonzero;fill:url(#e)"/><path d="M8 1.266c1.875 0 3.61.617 4.879 1.738C14.266 4.23 15 5.957 15 8c0 2.035-.734 3.758-2.121 4.984-1.277 1.13-3.008 1.75-4.879 1.75-1.879 0-3.613-.613-4.879-1.726C1.734 11.789 1 10.058 1 8c0-2.066.734-3.8 2.121-5.02C4.383 1.875 6.117 1.266 8 1.266m0-.5C4.105.766.5 3.266.5 8c0 4.71 3.605 7.234 7.5 7.234s7.5-2.59 7.5-7.234C15.5 3.328 11.895.766 8 .766m0 0" style="stroke:none;fill-rule:nonzero;fill:#eb8f00;fill-opacity:1"/><path d="M12.805 5.11a2.75 2.75 0 0 1-2.75 2.745 2.748 2.748 0 1 1 0-5.496c1.52 0 2.75 1.23 2.75 2.75m0 0" style="stroke:none;fill-rule:nonzero;fill:#fff;fill-opacity:1"/><path d="M10.055 2.86c.922 0 1.742.55 2.086 1.402a2.25 2.25 0 0 1-1.243 2.93 2.241 2.241 0 0 1-2.926-1.238 2.248 2.248 0 0 1 2.083-3.095m0-.5A2.749 2.749 0 0 0 7.508 6.14a2.75 2.75 0 0 0 2.547 1.72 2.749 2.749 0 0 0 0-5.5m0 0" style="stroke:none;fill-rule:nonzero;fill:#eb8f00;fill-opacity:1"/><path d="M10.93 5.125c0 .484-.39.875-.875.875a.874.874 0 0 1-.875-.875c0-.484.39-.875.875-.875.484 0 .875.39.875.875m0 0" style="stroke:none;fill-rule:nonzero;fill:#242424;fill-opacity:1"/><path d="M6.484 7.113a1.999 1.999 0 1 1-4 0 1.999 1.999 0 1 1 4 0m0 0" style="stroke:none;fill-rule:nonzero;fill:#fff;fill-opacity:1"/><path d="M4.492 5.613c.613 0 1.16.367 1.39.938a1.5 1.5 0 0 1-.007 1.148 1.51 1.51 0 0 1-1.383.914c-.613 0-1.16-.367-1.387-.937a1.5 1.5 0 0 1 1.387-2.063m0-.5c-.25 0-.504.047-.75.149a1.998 1.998 0 0 0 1.5 3.703 1.999 1.999 0 0 0-.75-3.852m0 0" style="stroke:none;fill-rule:nonzero;fill:#eb8f00;fill-opacity:1"/><path d="M5.367 7.125a.876.876 0 1 1-1.748-.002.876.876 0 0 1 1.748.002m0 0" style="stroke:none;fill-rule:nonzero;fill:#242424;fill-opacity:1"/><g clip-path="url(#f)"><g clip-path="url(#g)"><path d="M8.348 9.559c-1.508.507-2.95.855-4.192 1.03a.44.44 0 0 0-.32.653c1.027 1.77 3.426 2.7 5.727 1.926 2.515-.852 3.671-3.031 3.398-5.008a.443.443 0 0 0-.652-.32c-1.094.613-2.454 1.21-3.961 1.719m0 0" style="stroke:none;fill-rule:nonzero;fill:#242424;fill-opacity:1"/><use xlink:href="#i" mask="url(#h)"/></g></g><g clip-path="url(#j)"><g clip-path="url(#k)"><path d="m8.387 15.613-.41.024a2.153 2.153 0 0 1-2.25-2.051l-.23-2.715 4.706-1.36.23 3.852a2.15 2.15 0 0 1-2.046 2.25m0 0" style="stroke:none;fill-rule:nonzero;fill:#e04c74;fill-opacity:1"/></g></g><g clip-path="url(#l)"><g clip-path="url(#m)"><use xlink:href="#o" mask="url(#n)"/><use xlink:href="#q" mask="url(#p)"/></g></g></svg>
